X: 39817
T: There's Something About Kerry
R: polka
M: 2/4
K: Dmajor
AD FD|EF GB|AD FD|GB Ac|
dD FD|EF GB|Ad Ae|Af Ag:|
a>g fa|gf ec|d>e fd|ag fg|
a>g fa|gf ec|Ad Ae|Af Ag:|

